assets/img/news/news-bg.svg

<?xml version="1.0" encoding="UTF-8"?>
<svg width="453" height="308" viewBox="0 0 453 308" xmlns="http://www.w3.org/2000/svg">
 <rect width="453" height="308" fill="#D9D9D9"/>
 <path d="m161.12 167c-0.293 0-0.533-0.093-0.72-0.28s-0.28-0.427-0.28-0.72v-21.44h-7.28c-0.267 0-0.493-0.093-0.68-0.28s-0.28-0.413-0.28-0.68v-3.6c0-0.293 0.093-0.533 0.28-0.72s0.413-0.28 0.68-0.28h20.96c0.293 0 0.533 0.093 0.72 0.28s0.28 0.427 0.28 0.72v3.6c0 0.267-0.093 0.493-0.28 0.68s-0.427 0.28-0.72 0.28h-7.24v21.44c0 0.293-0.093 0.533-0.28 0.72s-0.427 0.28-0.72 0.28h-4.44zm15.665 0c-0.267 0-0.494-0.093-0.68-0.28-0.187-0.187-0.28-0.427-0.28-0.72v-18.8c0-0.267 0.093-0.493 0.28-0.68 0.186-0.213 0.413-0.32 0.68-0.32h3.92c0.266 0 0.493 0.107 0.68 0.32 0.213 0.187 0.32 0.413 0.32 0.68v1.6c0.666-0.827 1.48-1.467 2.44-1.92 0.986-0.453 2.12-0.68 3.4-0.68h1.72c0.266 0 0.493 0.093 0.68 0.28 0.186 0.187 0.28 0.427 0.28 0.72v3.44c0 0.293-0.094 0.533-0.28 0.72-0.187 0.187-0.414 0.28-0.68 0.28h-3.52c-1.174 0-2.094 0.333-2.76 1-0.667 0.64-1 1.56-1 2.76v10.6c0 0.293-0.094 0.533-0.28 0.72-0.187 0.187-0.427 0.28-0.72 0.28h-4.2zm22.191 0.4c-1.413 0-2.68-0.267-3.8-0.8-1.12-0.56-2.013-1.307-2.68-2.24s-1-1.973-1-3.12c0-1.893 0.76-3.387 2.28-4.48 1.547-1.093 3.573-1.84 6.08-2.24l5.24-0.76v-0.72c0-1.04-0.24-1.84-0.72-2.4s-1.32-0.84-2.52-0.84c-0.88 0-1.587 0.173-2.12 0.52s-0.947 0.8-1.24 1.36c-0.213 0.347-0.52 0.52-0.92 0.52h-3.8c-0.293 0-0.52-0.08-0.68-0.24-0.16-0.187-0.227-0.4-0.2-0.64 0-0.453 0.173-0.987 0.52-1.6s0.88-1.213 1.6-1.8c0.72-0.613 1.64-1.12 2.76-1.52s2.493-0.6 4.12-0.6c1.68 0 3.12 0.2 4.32 0.6s2.16 0.96 2.88 1.68 1.253 1.56 1.6 2.52c0.347 0.933 0.52 1.947 0.52 3.04v12.36c0 0.293-0.093 0.533-0.28 0.72s-0.427 0.28-0.72 0.28h-3.92c-0.267 0-0.493-0.093-0.68-0.28s-0.28-0.427-0.28-0.72v-1.48c-0.347 0.507-0.813 0.987-1.4 1.44-0.587 0.427-1.293 0.773-2.12 1.04-0.8 0.267-1.747 0.4-2.84 0.4zm1.6-4.16c0.88 0 1.667-0.187 2.36-0.56s1.24-0.947 1.64-1.72 0.6-1.747 0.6-2.92v-0.68l-3.72 0.6c-1.44 0.24-2.493 0.6-3.16 1.08s-1 1.067-1 1.76c0 0.507 0.147 0.947 0.44 1.32 0.32 0.373 0.733 0.653 1.24 0.84s1.04 0.28 1.6 0.28zm16.443 3.76c-0.267 0-0.493-0.093-0.68-0.28s-0.28-0.427-0.28-0.72v-18.8c0-0.293 0.093-0.533 0.28-0.72s0.413-0.28 0.68-0.28h3.92c0.293 0 0.533 0.093 0.72 0.28s0.28 0.427 0.28 0.72v1.56c0.693-0.853 1.587-1.56 2.68-2.12s2.427-0.84 4-0.84 2.947 0.36 4.12 1.08c1.2 0.693 2.133 1.72 2.8 3.08 0.693 1.333 1.04 2.96 1.04 4.88v11.16c0 0.293-0.107 0.533-0.32 0.72-0.187 0.187-0.413 0.28-0.68 0.28h-4.24c-0.293 0-0.533-0.093-0.72-0.28s-0.28-0.427-0.28-0.72v-10.92c0-1.413-0.347-2.507-1.04-3.28-0.667-0.8-1.653-1.2-2.96-1.2-1.253 0-2.253 0.4-3 1.2-0.747 0.773-1.12 1.867-1.12 3.28v10.92c0 0.293-0.093 0.533-0.28 0.72s-0.413 0.28-0.68 0.28h-4.24zm32.553 0.4c-1.654 0-3.08-0.187-4.28-0.56-1.174-0.4-2.134-0.88-2.88-1.44-0.72-0.56-1.267-1.12-1.64-1.68-0.347-0.587-0.534-1.08-0.56-1.48-0.027-0.293 0.066-0.533 0.28-0.72 0.213-0.187 0.426-0.28 0.64-0.28h3.88c0.08 0 0.16 0.013 0.24 0.04s0.16 0.093 0.24 0.2c0.346 0.24 0.706 0.52 1.08 0.84 0.373 0.293 0.8 0.547 1.28 0.76 0.506 0.213 1.133 0.32 1.88 0.32 0.88 0 1.626-0.173 2.24-0.52 0.613-0.373 0.92-0.893 0.92-1.56 0-0.48-0.147-0.88-0.44-1.2-0.267-0.32-0.787-0.613-1.56-0.88-0.774-0.267-1.92-0.56-3.44-0.88-1.44-0.32-2.667-0.747-3.68-1.28-1.014-0.533-1.774-1.2-2.28-2-0.507-0.827-0.76-1.813-0.76-2.96 0-1.04 0.32-2.04 0.96-3 0.666-0.96 1.64-1.747 2.92-2.36 1.28-0.64 2.88-0.96 4.8-0.96 1.466 0 2.746 0.187 3.84 0.56 1.12 0.347 2.053 0.8 2.8 1.36 0.746 0.533 1.306 1.093 1.68 1.68 0.4 0.56 0.613 1.053 0.64 1.48 0.026 0.267-0.054 0.493-0.24 0.68-0.187 0.187-0.4 0.28-0.64 0.28h-3.56c-0.134 0-0.254-0.013-0.36-0.04-0.107-0.053-0.2-0.12-0.28-0.2-0.32-0.213-0.654-0.453-1-0.72-0.32-0.293-0.707-0.547-1.16-0.76-0.454-0.213-1.04-0.32-1.76-0.32-0.88 0-1.56 0.2-2.04 0.6-0.454 0.373-0.68 0.853-0.68 1.44 0 0.373 0.12 0.72 0.36 1.04s0.733 0.613 1.48 0.88c0.746 0.267 1.88 0.547 3.4 0.84 1.813 0.32 3.253 0.8 4.32 1.44 1.066 0.64 1.826 1.387 2.28 2.24 0.48 0.827 0.72 1.72 0.72 2.68 0 1.253-0.374 2.373-1.12 3.36-0.747 0.96-1.84 1.72-3.28 2.28-1.414 0.533-3.16 0.8-5.24 0.8zm14.439-0.4c-0.266 0-0.493-0.093-0.68-0.28-0.186-0.187-0.28-0.427-0.28-0.72v-18.8c0-0.293 0.094-0.533 0.28-0.72 0.187-0.187 0.414-0.28 0.68-0.28h4c0.294 0 0.534 0.093 0.72 0.28 0.187 0.187 0.28 0.427 0.28 0.72v18.8c0 0.293-0.093 0.533-0.28 0.72-0.186 0.187-0.426 0.28-0.72 0.28h-4zm-0.12-24c-0.266 0-0.493-0.093-0.68-0.28-0.186-0.187-0.28-0.427-0.28-0.72v-3.2c0-0.293 0.094-0.533 0.28-0.72 0.187-0.213 0.414-0.32 0.68-0.32h4.2c0.294 0 0.534 0.107 0.72 0.32 0.214 0.187 0.32 0.427 0.32 0.72v3.2c0 0.293-0.106 0.533-0.32 0.72-0.186 0.187-0.426 0.28-0.72 0.28h-4.2zm20.137 24c-1.654 0-3.067-0.267-4.24-0.8-1.174-0.56-2.067-1.413-2.68-2.56-0.587-1.147-0.88-2.587-0.88-4.32v-8.4h-3.12c-0.294 0-0.534-0.093-0.72-0.28-0.187-0.187-0.28-0.427-0.28-0.72v-2.72c0-0.293 0.093-0.533 0.28-0.72 0.186-0.187 0.426-0.28 0.72-0.28h3.12v-6.6c0-0.293 0.093-0.533 0.28-0.72 0.213-0.187 0.453-0.28 0.72-0.28h3.92c0.293 0 0.533 0.093 0.72 0.28 0.186 0.187 0.28 0.427 0.28 0.72v6.6h5c0.266 0 0.493 0.093 0.68 0.28 0.186 0.187 0.28 0.427 0.28 0.72v2.72c0 0.293-0.094 0.533-0.28 0.72-0.187 0.187-0.414 0.28-0.68 0.28h-5v7.92c0 1.013 0.173 1.813 0.52 2.4 0.373 0.56 1.013 0.84 1.92 0.84h2.92c0.266 0 0.493 0.093 0.68 0.28 0.186 0.187 0.28 0.413 0.28 0.68v2.96c0 0.293-0.094 0.533-0.28 0.72-0.187 0.187-0.414 0.28-0.68 0.28h-3.48zm9.37 0c-0.294 0-0.534-0.093-0.72-0.28-0.187-0.187-0.28-0.427-0.28-0.72v-26c0-0.293 0.093-0.533 0.28-0.72 0.186-0.187 0.426-0.28 0.72-0.28h17.84c0.293 0 0.533 0.093 0.72 0.28 0.186 0.187 0.28 0.427 0.28 0.72v3.4c0 0.293-0.094 0.533-0.28 0.72-0.187 0.187-0.427 0.28-0.72 0.28h-12.6v6.76h11.8c0.293 0 0.533 0.093 0.72 0.28 0.186 0.187 0.28 0.427 0.28 0.72v3.4c0 0.267-0.094 0.493-0.28 0.68-0.187 0.187-0.427 0.28-0.72 0.28h-11.8v9.48c0 0.293-0.094 0.533-0.28 0.72-0.187 0.187-0.427 0.28-0.72 0.28h-4.24zm23.935 0c-0.294 0-0.534-0.093-0.72-0.28-0.187-0.187-0.28-0.427-0.28-0.72v-26.4c0-0.293 0.093-0.533 0.28-0.72 0.186-0.187 0.426-0.28 0.72-0.28h4c0.266 0 0.493 0.093 0.68 0.28 0.186 0.187 0.28 0.427 0.28 0.72v26.4c0 0.293-0.094 0.533-0.28 0.72-0.187 0.187-0.414 0.28-0.68 0.28h-4zm19.535 0.4c-2.213 0-4.067-0.36-5.56-1.08-1.493-0.747-2.64-1.8-3.44-3.16-0.773-1.36-1.2-2.947-1.28-4.76-0.027-0.533-0.04-1.133-0.04-1.8 0-0.693 0.013-1.293 0.04-1.8 0.08-1.84 0.533-3.427 1.36-4.76 0.827-1.36 1.987-2.4 3.48-3.12 1.493-0.747 3.307-1.12 5.44-1.12 2.107 0 3.907 0.373 5.4 1.12 1.493 0.72 2.653 1.76 3.48 3.12 0.827 1.333 1.28 2.92 1.36 4.76 0.053 0.507 0.08 1.107 0.08 1.8 0 0.667-0.027 1.267-0.08 1.8-0.08 1.813-0.52 3.4-1.32 4.76-0.773 1.36-1.907 2.413-3.4 3.16-1.493 0.72-3.333 1.08-5.52 1.08zm0-4.4c1.307 0 2.293-0.4 2.96-1.2 0.667-0.827 1.027-2.027 1.08-3.6 0.027-0.4 0.04-0.933 0.04-1.6s-0.013-1.2-0.04-1.6c-0.053-1.547-0.413-2.733-1.08-3.56s-1.653-1.24-2.96-1.24-2.307 0.413-3 1.24c-0.667 0.827-1.027 2.013-1.08 3.56-0.027 0.4-0.04 0.933-0.04 1.6s0.013 1.2 0.04 1.6c0.053 1.573 0.413 2.773 1.08 3.6 0.693 0.8 1.693 1.2 3 1.2zm19.638 4c-0.374 0-0.667-0.093-0.88-0.28-0.187-0.187-0.334-0.427-0.44-0.72l-5.72-18.52c-0.054-0.133-0.08-0.267-0.08-0.4 0-0.24 0.08-0.44 0.24-0.6 0.186-0.187 0.4-0.28 0.64-0.28h3.52c0.346 0 0.613 0.093 0.8 0.28 0.186 0.187 0.306 0.36 0.36 0.52l3.64 12.36 3.88-12.28c0.053-0.187 0.173-0.373 0.36-0.56 0.213-0.213 0.506-0.32 0.88-0.32h2.28c0.373 0 0.653 0.107 0.84 0.32 0.213 0.187 0.346 0.373 0.4 0.56l3.88 12.28 3.64-12.36c0.026-0.16 0.133-0.333 0.32-0.52 0.213-0.187 0.48-0.28 0.8-0.28h3.52c0.24 0 0.44 0.093 0.6 0.28 0.186 0.16 0.28 0.36 0.28 0.6 0 0.133-0.014 0.267-0.04 0.4l-5.76 18.52c-0.08 0.293-0.227 0.533-0.44 0.72-0.187 0.187-0.467 0.28-0.84 0.28h-3.08c-0.374 0-0.667-0.093-0.88-0.28-0.214-0.187-0.374-0.427-0.48-0.72l-3.88-11.84-3.96 11.84c-0.08 0.293-0.227 0.533-0.44 0.72-0.214 0.187-0.507 0.28-0.88 0.28h-3.08z" fill="#565656"/>
 <rect transform="rotate(-30 67 130.76)" x="67" y="130.76" width="22.011" height="22.011" fill="#2F2F2F"/>
 <rect x="76.295" y="153.5" width="22.5" height="22.5" fill="#2F2F2F"/>
 <rect x="107.8" y="124.25" width="22.5" height="22.5" fill="#2F2F2F"/>
 <rect x="107.8" y="153.5" width="22.5" height="22.5" fill="#2F2F2F"/>
</svg>

<svg width="453" height="308" viewBox="0 0 453 308" fill="none" xmlns="http://www.w3.org/2000/svg">
<rect width="453" height="308" fill="#D9D9D9"/>
<path d="M161.12 167C160.827 167 160.587 166.907 160.4 166.72C160.213 166.533 160.12 166.293 160.12 166V144.56H152.84C152.573 144.56 152.347 144.467 152.16 144.28C151.973 144.093 151.88 143.867 151.88 143.6V140C151.88 139.707 151.973 139.467 152.16 139.28C152.347 139.093 152.573 139 152.84 139H173.8C174.093 139 174.333 139.093 174.52 139.28C174.707 139.467 174.8 139.707 174.8 140V143.6C174.8 143.867 174.707 144.093 174.52 144.28C174.333 144.467 174.093 144.56 173.8 144.56H166.56V166C166.56 166.293 166.467 166.533 166.28 166.72C166.093 166.907 165.853 167 165.56 167H161.12ZM176.785 167C176.518 167 176.291 166.907 176.105 166.72C175.918 166.533 175.825 166.293 175.825 166V147.2C175.825 146.933 175.918 146.707 176.105 146.52C176.291 146.307 176.518 146.2 176.785 146.2H180.705C180.971 146.2 181.198 146.307 181.385 146.52C181.598 146.707 181.705 146.933 181.705 147.2V148.8C182.371 147.973 183.185 147.333 184.145 146.88C185.131 146.427 186.265 146.2 187.545 146.2H189.265C189.531 146.2 189.758 146.293 189.945 146.48C190.131 146.667 190.225 146.907 190.225 147.2V150.64C190.225 150.933 190.131 151.173 189.945 151.36C189.758 151.547 189.531 151.64 189.265 151.64H185.745C184.571 151.64 183.651 151.973 182.985 152.64C182.318 153.28 181.985 154.2 181.985 155.4V166C181.985 166.293 181.891 166.533 181.705 166.72C181.518 166.907 181.278 167 180.985 167H176.785ZM198.976 167.4C197.563 167.4 196.296 167.133 195.176 166.6C194.056 166.04 193.163 165.293 192.496 164.36C191.829 163.427 191.496 162.387 191.496 161.24C191.496 159.347 192.256 157.853 193.776 156.76C195.323 155.667 197.349 154.92 199.856 154.52L205.096 153.76V153.04C205.096 152 204.856 151.2 204.376 150.64C203.896 150.08 203.056 149.8 201.856 149.8C200.976 149.8 200.269 149.973 199.736 150.32C199.203 150.667 198.789 151.12 198.496 151.68C198.283 152.027 197.976 152.2 197.576 152.2H193.776C193.483 152.2 193.256 152.12 193.096 151.96C192.936 151.773 192.869 151.56 192.896 151.32C192.896 150.867 193.069 150.333 193.416 149.72C193.763 149.107 194.296 148.507 195.016 147.92C195.736 147.307 196.656 146.8 197.776 146.4C198.896 146 200.269 145.8 201.896 145.8C203.576 145.8 205.016 146 206.216 146.4C207.416 146.8 208.376 147.36 209.096 148.08C209.816 148.8 210.349 149.64 210.696 150.6C211.043 151.533 211.216 152.547 211.216 153.64V166C211.216 166.293 211.123 166.533 210.936 166.72C210.749 166.907 210.509 167 210.216 167H206.296C206.029 167 205.803 166.907 205.616 166.72C205.429 166.533 205.336 166.293 205.336 166V164.52C204.989 165.027 204.523 165.507 203.936 165.96C203.349 166.387 202.643 166.733 201.816 167C201.016 167.267 200.069 167.4 198.976 167.4ZM200.576 163.24C201.456 163.24 202.243 163.053 202.936 162.68C203.629 162.307 204.176 161.733 204.576 160.96C204.976 160.187 205.176 159.213 205.176 158.04V157.36L201.456 157.96C200.016 158.2 198.963 158.56 198.296 159.04C197.629 159.52 197.296 160.107 197.296 160.8C197.296 161.307 197.443 161.747 197.736 162.12C198.056 162.493 198.469 162.773 198.976 162.96C199.483 163.147 200.016 163.24 200.576 163.24ZM217.019 167C216.752 167 216.526 166.907 216.339 166.72C216.152 166.533 216.059 166.293 216.059 166V147.2C216.059 146.907 216.152 146.667 216.339 146.48C216.526 146.293 216.752 146.2 217.019 146.2H220.939C221.232 146.2 221.472 146.293 221.659 146.48C221.846 146.667 221.939 146.907 221.939 147.2V148.76C222.632 147.907 223.526 147.2 224.619 146.64C225.712 146.08 227.046 145.8 228.619 145.8C230.192 145.8 231.566 146.16 232.739 146.88C233.939 147.573 234.872 148.6 235.539 149.96C236.232 151.293 236.579 152.92 236.579 154.84V166C236.579 166.293 236.472 166.533 236.259 166.72C236.072 166.907 235.846 167 235.579 167H231.339C231.046 167 230.806 166.907 230.619 166.72C230.432 166.533 230.339 166.293 230.339 166V155.08C230.339 153.667 229.992 152.573 229.299 151.8C228.632 151 227.646 150.6 226.339 150.6C225.086 150.6 224.086 151 223.339 151.8C222.592 152.573 222.219 153.667 222.219 155.08V166C222.219 166.293 222.126 166.533 221.939 166.72C221.752 166.907 221.526 167 221.259 167H217.019ZM249.572 167.4C247.918 167.4 246.492 167.213 245.292 166.84C244.118 166.44 243.158 165.96 242.412 165.4C241.692 164.84 241.145 164.28 240.772 163.72C240.425 163.133 240.238 162.64 240.212 162.24C240.185 161.947 240.278 161.707 240.492 161.52C240.705 161.333 240.918 161.24 241.132 161.24H245.012C245.092 161.24 245.172 161.253 245.252 161.28C245.332 161.307 245.412 161.373 245.492 161.48C245.838 161.72 246.198 162 246.572 162.32C246.945 162.613 247.372 162.867 247.852 163.08C248.358 163.293 248.985 163.4 249.732 163.4C250.612 163.4 251.358 163.227 251.972 162.88C252.585 162.507 252.892 161.987 252.892 161.32C252.892 160.84 252.745 160.44 252.452 160.12C252.185 159.8 251.665 159.507 250.892 159.24C250.118 158.973 248.972 158.68 247.452 158.36C246.012 158.04 244.785 157.613 243.772 157.08C242.758 156.547 241.998 155.88 241.492 155.08C240.985 154.253 240.732 153.267 240.732 152.12C240.732 151.08 241.052 150.08 241.692 149.12C242.358 148.16 243.332 147.373 244.612 146.76C245.892 146.12 247.492 145.8 249.412 145.8C250.878 145.8 252.158 145.987 253.252 146.36C254.372 146.707 255.305 147.16 256.052 147.72C256.798 148.253 257.358 148.813 257.732 149.4C258.132 149.96 258.345 150.453 258.372 150.88C258.398 151.147 258.318 151.373 258.132 151.56C257.945 151.747 257.732 151.84 257.492 151.84H253.932C253.798 151.84 253.678 151.827 253.572 151.8C253.465 151.747 253.372 151.68 253.292 151.6C252.972 151.387 252.638 151.147 252.292 150.88C251.972 150.587 251.585 150.333 251.132 150.12C250.678 149.907 250.092 149.8 249.372 149.8C248.492 149.8 247.812 150 247.332 150.4C246.878 150.773 246.652 151.253 246.652 151.84C246.652 152.213 246.772 152.56 247.012 152.88C247.252 153.2 247.745 153.493 248.492 153.76C249.238 154.027 250.372 154.307 251.892 154.6C253.705 154.92 255.145 155.4 256.212 156.04C257.278 156.68 258.038 157.427 258.492 158.28C258.972 159.107 259.212 160 259.212 160.96C259.212 162.213 258.838 163.333 258.092 164.32C257.345 165.28 256.252 166.04 254.812 166.6C253.398 167.133 251.652 167.4 249.572 167.4ZM264.011 167C263.745 167 263.518 166.907 263.331 166.72C263.145 166.533 263.051 166.293 263.051 166V147.2C263.051 146.907 263.145 146.667 263.331 146.48C263.518 146.293 263.745 146.2 264.011 146.2H268.011C268.305 146.2 268.545 146.293 268.731 146.48C268.918 146.667 269.011 146.907 269.011 147.2V166C269.011 166.293 268.918 166.533 268.731 166.72C268.545 166.907 268.305 167 268.011 167H264.011ZM263.891 143C263.625 143 263.398 142.907 263.211 142.72C263.025 142.533 262.931 142.293 262.931 142V138.8C262.931 138.507 263.025 138.267 263.211 138.08C263.398 137.867 263.625 137.76 263.891 137.76H268.091C268.385 137.76 268.625 137.867 268.811 138.08C269.025 138.267 269.131 138.507 269.131 138.8V142C269.131 142.293 269.025 142.533 268.811 142.72C268.625 142.907 268.385 143 268.091 143H263.891ZM284.028 167C282.374 167 280.961 166.733 279.788 166.2C278.614 165.64 277.721 164.787 277.108 163.64C276.521 162.493 276.228 161.053 276.228 159.32V150.92H273.108C272.814 150.92 272.574 150.827 272.388 150.64C272.201 150.453 272.108 150.213 272.108 149.92V147.2C272.108 146.907 272.201 146.667 272.388 146.48C272.574 146.293 272.814 146.2 273.108 146.2H276.228V139.6C276.228 139.307 276.321 139.067 276.508 138.88C276.721 138.693 276.961 138.6 277.228 138.6H281.148C281.441 138.6 281.681 138.693 281.868 138.88C282.054 139.067 282.148 139.307 282.148 139.6V146.2H287.148C287.414 146.2 287.641 146.293 287.828 146.48C288.014 146.667 288.108 146.907 288.108 147.2V149.92C288.108 150.213 288.014 150.453 287.828 150.64C287.641 150.827 287.414 150.92 287.148 150.92H282.148V158.84C282.148 159.853 282.321 160.653 282.668 161.24C283.041 161.8 283.681 162.08 284.588 162.08H287.508C287.774 162.08 288.001 162.173 288.188 162.36C288.374 162.547 288.468 162.773 288.468 163.04V166C288.468 166.293 288.374 166.533 288.188 166.72C288.001 166.907 287.774 167 287.508 167H284.028ZM293.398 167C293.104 167 292.864 166.907 292.678 166.72C292.491 166.533 292.398 166.293 292.398 166V140C292.398 139.707 292.491 139.467 292.678 139.28C292.864 139.093 293.104 139 293.398 139H311.238C311.531 139 311.771 139.093 311.958 139.28C312.144 139.467 312.238 139.707 312.238 140V143.4C312.238 143.693 312.144 143.933 311.958 144.12C311.771 144.307 311.531 144.4 311.238 144.4H298.638V151.16H310.438C310.731 151.16 310.971 151.253 311.158 151.44C311.344 151.627 311.438 151.867 311.438 152.16V155.56C311.438 155.827 311.344 156.053 311.158 156.24C310.971 156.427 310.731 156.52 310.438 156.52H298.638V166C298.638 166.293 298.544 166.533 298.358 166.72C298.171 166.907 297.931 167 297.638 167H293.398ZM317.333 167C317.039 167 316.799 166.907 316.613 166.72C316.426 166.533 316.333 166.293 316.333 166V139.6C316.333 139.307 316.426 139.067 316.613 138.88C316.799 138.693 317.039 138.6 317.333 138.6H321.333C321.599 138.6 321.826 138.693 322.013 138.88C322.199 139.067 322.293 139.307 322.293 139.6V166C322.293 166.293 322.199 166.533 322.013 166.72C321.826 166.907 321.599 167 321.333 167H317.333ZM336.868 167.4C334.655 167.4 332.801 167.04 331.308 166.32C329.815 165.573 328.668 164.52 327.868 163.16C327.095 161.8 326.668 160.213 326.588 158.4C326.561 157.867 326.548 157.267 326.548 156.6C326.548 155.907 326.561 155.307 326.588 154.8C326.668 152.96 327.121 151.373 327.948 150.04C328.775 148.68 329.935 147.64 331.428 146.92C332.921 146.173 334.735 145.8 336.868 145.8C338.975 145.8 340.775 146.173 342.268 146.92C343.761 147.64 344.921 148.68 345.748 150.04C346.575 151.373 347.028 152.96 347.108 154.8C347.161 155.307 347.188 155.907 347.188 156.6C347.188 157.267 347.161 157.867 347.108 158.4C347.028 160.213 346.588 161.8 345.788 163.16C345.015 164.52 343.881 165.573 342.388 166.32C340.895 167.04 339.055 167.4 336.868 167.4ZM336.868 163C338.175 163 339.161 162.6 339.828 161.8C340.495 160.973 340.855 159.773 340.908 158.2C340.935 157.8 340.948 157.267 340.948 156.6C340.948 155.933 340.935 155.4 340.908 155C340.855 153.453 340.495 152.267 339.828 151.44C339.161 150.613 338.175 150.2 336.868 150.2C335.561 150.2 334.561 150.613 333.868 151.44C333.201 152.267 332.841 153.453 332.788 155C332.761 155.4 332.748 155.933 332.748 156.6C332.748 157.267 332.761 157.8 332.788 158.2C332.841 159.773 333.201 160.973 333.868 161.8C334.561 162.6 335.561 163 336.868 163ZM356.506 167C356.132 167 355.839 166.907 355.626 166.72C355.439 166.533 355.292 166.293 355.186 166L349.466 147.48C349.412 147.347 349.386 147.213 349.386 147.08C349.386 146.84 349.466 146.64 349.626 146.48C349.812 146.293 350.026 146.2 350.266 146.2H353.786C354.132 146.2 354.399 146.293 354.586 146.48C354.772 146.667 354.892 146.84 354.946 147L358.586 159.36L362.466 147.08C362.519 146.893 362.639 146.707 362.826 146.52C363.039 146.307 363.332 146.2 363.706 146.2H365.986C366.359 146.2 366.639 146.307 366.826 146.52C367.039 146.707 367.172 146.893 367.226 147.08L371.106 159.36L374.746 147C374.772 146.84 374.879 146.667 375.066 146.48C375.279 146.293 375.546 146.2 375.866 146.2H379.386C379.626 146.2 379.826 146.293 379.986 146.48C380.172 146.64 380.266 146.84 380.266 147.08C380.266 147.213 380.252 147.347 380.226 147.48L374.466 166C374.386 166.293 374.239 166.533 374.026 166.72C373.839 166.907 373.559 167 373.186 167H370.106C369.732 167 369.439 166.907 369.226 166.72C369.012 166.533 368.852 166.293 368.746 166L364.866 154.16L360.906 166C360.826 166.293 360.679 166.533 360.466 166.72C360.252 166.907 359.959 167 359.586 167H356.506Z" fill="#565656"/>
<rect x="67" y="130.756" width="22.0109" height="22.0109" transform="rotate(-30 67 130.756)" fill="#2F2F2F"/>
<rect x="76.2949" y="153.5" width="22.5" height="22.5" fill="#2F2F2F"/>
<rect x="107.795" y="124.25" width="22.5" height="22.5" fill="#2F2F2F"/>
<rect x="107.795" y="153.5" width="22.5" height="22.5" fill="#2F2F2F"/>
</svg>
